X: 22422
T: Ladies Pantalettes, The
R: reel
M: 4/4
K: Gmajor
|:BdcA G3B|AF~F2 cF~F2|BdcA G2ge|fdcA BGG2:|
|:fgaf g2fg|abag fdd2|fgaf gbag|fdcA BGG2:|

